svgs/regular/microwave.svg

<svg xmlns="http://www.w3.org/2000/svg" viewBox="0 0 576 512"><!-- Font Awesome Pro 6.0.0-alpha2 by @fontawesome - https://fontawesome.com License - https://fontawesome.com/license (Commercial License) --><path d="M384 128H128C110.326 128 96 142.326 96 160V320C96 337.672 110.326 352 128 352H384C401.674 352 416 337.672 416 320V160C416 142.326 401.674 128 384 128ZM472 224C458.746 224 448 234.744 448 248C448 261.254 458.746 272 472 272S496 261.254 496 248C496 234.744 485.254 224 472 224ZM512 32H64C28.654 32 0 60.652 0 96V384C0 419.346 28.654 448 64 448V456C64 469.254 74.746 480 88 480S112 469.254 112 456V448H464V456C464 469.254 474.746 480 488 480S512 469.254 512 456V448C547.346 448 576 419.346 576 384V96C576 60.652 547.346 32 512 32ZM528 384C528 392.822 520.822 400 512 400H64C55.178 400 48 392.822 48 384V96C48 87.178 55.178 80 64 80H512C520.822 80 528 87.178 528 96V384ZM472 144C458.746 144 448 154.744 448 168C448 181.254 458.746 192 472 192S496 181.254 496 168C496 154.744 485.254 144 472 144Z"/></svg>

<svg xmlns="http://www.w3.org/2000/svg" viewBox="0 0 576 512"><!--! Font Awesome Pro 6.0.0-alpha3 by @fontawesome - https://fontawesome.com License - https://fontawesome.com/license (Commercial License) --><path d="M384 128H128C110.3 128 96 142.3 96 160v160c0 17.67 14.33 32 32 32h256c17.67 0 32-14.33 32-32V160C416 142.3 401.7 128 384 128zM472 224C458.7 224 448 234.7 448 248c0 13.25 10.75 24 24 24s24-10.75 24-24C496 234.7 485.3 224 472 224zM512 32H64C28.65 32 0 60.65 0 96v288c0 35.35 28.65 64 64 64v8C64 469.3 74.75 480 88 480s24-10.75 24-24V448h352v8c0 13.25 10.75 24 24 24S512 469.3 512 456V448c35.35 0 64-28.65 64-64V96C576 60.65 547.3 32 512 32zM528 384c0 8.822-7.178 16-16 16H64c-8.822 0-16-7.178-16-16V96c0-8.822 7.178-16 16-16h448c8.822 0 16 7.178 16 16V384zM472 144C458.7 144 448 154.7 448 168C448 181.3 458.7 192 472 192s24-10.75 24-24C496 154.7 485.3 144 472 144z"/></svg>
